X:409
%%etbk:tnset id:120,pos:2,rep:3x,ant:
%%etbk:wsite http://www.thesession.org/tunes/display/715
%%etbk:pldat 2015-02-06T18:23,2014-12-06T16:35,2014-05-19T19:14,2014-04-08T17:46,2014-03-27T18:30,2014-03-09T15:01,2014-02-27T18:34,2014-02-25T19:42,2014-02-18T17:47,2013-11-23T16:36,2013-11-18T18:18,2013-10-07T18:34,2013-05-22T16:28
T: West Cork, The
Z: Piano Box Version by Martin Fleischmann
H: Created 2013-02-19 /  Last Modified 2013-02-19
M: 2/4
L: 1/8
R: polka
K:Dmix
|: "D"!1!D2!2!AB | !4!c!2!A {c}A!1!G | !2!A!5!d !3!d^c | !3!d{e}!3!d !3!de | !5!f!3!d !4!ed | !2!c!1!A !3!A!4!B | "A"!5!c!3!A !2!G!1!E | "D"!1!D4:|
|: "D"!5!f!3!d !4!ed | !2!c!1!A A>!2!e | !3!f!1!d {g}!2!ed | !3!fg !5!a>g | !3!f!1!d {g}!2!e!1!d | !2!c!1!A !3!A!4!B | "A"!5!c!3!A !2!G!1!E | "D"!1!D4:|


